X: 484
T: A Whistle On The Wind
R: waltz
M: 3/4
K: Amixolydian
G>A|:e4 f>d|e4 f>d|B4 B<d|B A3 G>A|
e4 f>d|e4 e>f|g4 B>g|1 B A3 G>A:|2 B A3 e>f|
|:g4 a>f|g4 e>f|g4 B>d|B A3 e>f|g4 a>f|
g4 f>g|a4 B>g|1 B A3 e>f:|2 B A3 G>A|
e4 f>d|e4 f>d|B4 B<d|B A3 G>A|
e4 f>d|e4 e>d|g4 B>g|B A3||

